X: 27952
T: Mountcollins, The
R: jig
M: 6/8
K: Dmajor
|:FEF DFA|BAF ABd|fed BAF|
[1 B3 B2A|FEF DFA|BAF ABd|fed BAF|E3 EDE:|
[2 B3 Bde|fed edc|dcB cBA|BAF EFA|B3 B2A||
|:f2f Adf|afd ede|fgf Adf|
[1 g3 gfe|f2f Adf|a2f gfe|edB AFA|B3 B2A:|
[2 g3 gfg|agf gfe|fed edc|BAF DFA|B3 B2A||

